svg/Frame-1261155980.svg

<svg width="49" height="74" viewBox="0 0 49 74" fill="none" xmlns="http://www.w3.org/2000/svg"><rect width="49" height="74" fill="#DADADA"/><mask id="path-2-inside-1_2483_15959" fill="white"><path d="M1142.2 94.2002L-297.801 94.2001L-297.801 -14.7999L1142.2 -14.7998L1142.2 94.2002Z"/></mask><path d="M1142.2 94.2002L-297.801 94.2001L-297.801 -14.7999L1142.2 -14.7998L1142.2 94.2002Z" fill="white"/><path d="M2.04722 63.6802C1.68722 64.2082 1.29122 64.7242 0.859221 65.2042L0.583221 64.2802C1.75922 62.8282 2.61122 61.1602 3.15122 59.2882L3.95522 59.6602C3.66722 60.5842 3.31922 61.4482 2.89922 62.2642V70.4242H2.04722V63.6802ZM3.90722 60.9802H7.60322C7.42322 60.5002 7.21922 60.0442 6.97922 59.5882L7.80722 59.3602C8.05922 59.8882 8.25122 60.3682 8.39522 60.8122L7.93922 60.9802H11.7192V61.7962H3.90722V60.9802ZM5.01122 62.7682H10.6872V63.5482H5.01122V62.7682ZM5.01122 64.4602H10.6872V65.2522H5.01122V64.4602ZM10.9032 66.2362V70.4002H10.0632V69.7522H5.62322V70.4002H4.78322V66.2362H10.9032ZM5.62322 68.9362H10.0632V67.0402H5.62322V68.9362ZM14.4912 60.2842H17.1312C17.2992 59.9722 17.4192 59.6602 17.5032 59.3242L18.4032 59.4442C18.3072 59.7442 18.1872 60.0202 18.0432 60.2842H22.0032V66.1522H14.4912V60.2842ZM21.1632 65.4082V64.4002H15.3312V65.4082H21.1632ZM15.3312 63.7042H21.1632V62.7202H15.3312V63.7042ZM15.3312 62.0242H21.1632V61.0402H15.3312V62.0242ZM13.8912 66.9682L14.7072 67.1362C14.4192 68.2402 14.0232 69.1882 13.5072 70.0042L12.7752 69.5362C13.2912 68.7682 13.6632 67.9042 13.8912 66.9682ZM19.6752 70.2202H16.5912C15.8952 70.2202 15.5592 69.8722 15.5592 69.2002V66.9082H16.4352V69.0202C16.4352 69.2962 16.5672 69.4402 16.8432 69.4402H19.5072C19.7832 69.4402 19.9752 69.3682 20.0712 69.2482C20.2152 69.0802 20.3232 68.6122 20.3712 67.8322L21.1992 68.0962C21.1032 69.1042 20.9352 69.7162 20.6952 69.9442C20.4792 70.1242 20.1312 70.2202 19.6752 70.2202ZM18.0672 66.4762C18.7152 67.1002 19.2072 67.6522 19.5552 68.1202L18.8952 68.5762C18.5352 68.0602 18.0552 67.4962 17.4312 66.8722L18.0672 66.4762ZM21.9432 66.7522C22.7112 67.7122 23.2992 68.5642 23.7072 69.2842L23.0232 69.7642C22.5912 68.9842 22.0032 68.1202 21.2712 67.1722L21.9432 66.7522ZM33.6312 64.1362V66.4882H27.6432V67.3162H34.1832V70.4002H33.3312V69.8962H27.6432V70.3882H26.7792V64.1362H33.6312ZM27.6432 69.1282H33.3312V68.0122H27.6432V69.1282ZM27.6432 65.7922H32.7912V64.8322H27.6432V65.7922ZM35.2872 62.6842V64.8562H34.4472V63.4282H25.9512V64.8562H25.1112V62.6842H29.8632C29.7432 62.3962 29.6232 62.1442 29.4912 61.9042L30.3312 61.7602L30.2592 61.7122C30.8352 60.9922 31.2432 60.2122 31.5072 59.3482L32.3352 59.5282C32.2512 59.7802 32.1672 60.0202 32.0712 60.2602H35.5392V61.0162H33.4032C33.6552 61.3522 33.8592 61.6642 34.0032 61.9522L33.2352 62.2402C33.0192 61.8082 32.7672 61.4002 32.4792 61.0162H31.7232C31.5072 61.4242 31.2552 61.8082 30.9912 62.1682L30.3432 61.7722C30.4752 62.0482 30.6072 62.3482 30.7272 62.6842H35.2872ZM26.5512 61.0162C26.2632 61.4842 25.9512 61.9162 25.5912 62.3122L24.8352 61.8322C25.5552 61.0882 26.0832 60.2482 26.4192 59.3362L27.2472 59.5162C27.1512 59.7802 27.0432 60.0202 26.9472 60.2602H30.1632V61.0162H28.1472C28.4112 61.3762 28.6392 61.7242 28.8072 62.0482L28.0152 62.3482C27.7992 61.8922 27.5352 61.4482 27.2352 61.0162H26.5512ZM41.1912 59.8762H47.0592V65.4202H44.5632V66.8362H47.2632V67.6522H44.5632V69.2122H47.7072V70.0402H40.4832V69.2122H43.6992V67.6522H40.9872V66.8362H43.6992V65.4202H41.1912V59.8762ZM46.2312 64.6522V63.0322H44.5632V64.6522H46.2312ZM43.6992 64.6522V63.0322H42.0192V64.6522H43.6992ZM42.0192 62.2762H43.6992V60.6442H42.0192V62.2762ZM44.5632 60.6442V62.2762H46.2312V60.6442H44.5632ZM36.9552 63.8482H38.2632V61.0042H36.7872V60.1882H40.6152V61.0042H39.1512V63.8482H40.4712V64.6762H39.1512V67.4002C39.6072 67.2442 40.0392 67.0762 40.4712 66.8842V67.7242C39.3672 68.1802 38.1792 68.5642 36.9072 68.8762L36.6912 68.0482C37.2192 67.9522 37.7472 67.8322 38.2632 67.6882V64.6762H36.9552V63.8482Z" fill="black"/><rect x="0.0992187" y="0.100195" width="48.2" height="48.2" rx="10.1" fill="#F6F6F6"/><rect x="0.0992187" y="0.100195" width="48.2" height="48.2" rx="10.1" stroke="#D4D4D8" stroke-width="0.2"/><g filter="url(#filter0_iii_2483_15959)"><path d="M33.7141 12.5322H25.5743C25.5706 12.5322 25.5677 12.5352 25.5677 12.5388C25.5677 12.5425 25.5646 12.5455 25.561 12.5455C24.1232 12.5476 23.0608 13.2361 22.6349 14.4264C22.5104 14.8026 22.4336 15.2292 22.4336 15.6795V20.5674C22.4336 21.5211 22.7224 22.3106 23.2734 22.8616C23.8244 23.4127 24.6139 23.7015 25.5677 23.7015C26.0816 23.7015 26.5081 24.128 26.5081 24.6419C26.5081 25.2841 27.2247 25.6665 27.7581 25.3089L29.931 23.8525C30.082 23.7518 30.2701 23.6882 30.4582 23.6882H33.7167C34.1671 23.6882 34.5936 23.6246 34.9831 23.4869C36.1726 23.0603 36.8508 21.9953 36.8508 20.5542V15.6663C36.8508 13.735 35.648 12.5322 33.7167 12.5322H33.7141ZM26.0313 19.1262C25.5041 19.1262 25.0908 18.6997 25.0908 18.1857C25.0908 17.6718 25.5173 17.2452 26.0313 17.2452C26.5452 17.2452 26.9718 17.6718 26.9718 18.1857C26.9718 18.6997 26.5585 19.1262 26.0313 19.1262ZM29.5627 19.1262C29.0355 19.1262 28.6222 18.6997 28.6222 18.1857C28.6222 17.6718 29.0488 17.2452 29.5627 17.2452C30.0767 17.2452 30.5032 17.6718 30.5032 18.1857C30.5032 18.6997 30.0767 19.1262 29.5627 19.1262ZM33.0862 19.1262C32.559 19.1262 32.1457 18.6997 32.1457 18.1857C32.1457 17.6718 32.5723 17.2452 33.0862 17.2452C33.6002 17.2452 34.0267 17.6718 34.0267 18.1857C34.0267 18.6997 33.6002 19.1262 33.0862 19.1262Z" fill="#D9D9D9"/></g><g filter="url(#filter1_dii_2483_15959)"><path d="M31.5425 25.5331C31.1942 25.5331 30.846 25.6325 30.5574 25.8313L27.6918 27.7393C27.3534 27.9679 26.9753 28.0673 26.6072 28.0673C26.2904 28.0673 25.9638 27.9788 25.6862 27.8311C25.6833 27.8296 25.6801 27.8288 25.6768 27.8288C25.6736 27.8288 25.6703 27.8279 25.6675 27.8264C25.0432 27.4879 24.6569 26.8432 24.6569 26.1294C24.6569 25.7418 24.3684 25.384 23.9505 25.2449C23.2241 25.0064 22.5773 24.6089 22.05 24.0921C21.1246 23.1679 20.6072 21.8362 20.6072 20.3555V14.2002C20.6072 13.6479 20.1595 13.2002 19.6072 13.2002H16.3584C14.0599 13.2002 12.1992 15.0586 12.1992 17.3443V28.4847C12.1992 30.7803 14.0599 32.6288 16.3584 32.6288H32.04C34.3385 32.6288 36.1992 30.7803 36.1992 28.4847V26.5331C36.1992 25.9808 35.7515 25.5331 35.1992 25.5331H31.5425ZM28.7266 35.7294H26.4679C25.642 35.7294 24.9654 35.0635 24.9654 34.2387V33.871C24.9654 33.4635 24.637 33.1356 24.2291 33.1356C23.8211 33.1356 23.4928 33.4635 23.4928 33.871V34.2387C23.4928 35.0635 22.8261 35.7294 22.0002 35.7294H19.7415C19.3435 35.7294 19.0052 36.0673 19.0052 36.4648C19.0052 36.8623 19.3435 37.2002 19.7415 37.2002H28.7266C29.1246 37.2002 29.4629 36.8722 29.4629 36.4648C29.4629 36.0573 29.1246 35.7294 28.7266 35.7294Z" fill="#919191"/></g><defs><filter id="filter0_iii_2483_15959" x="21.9648" y="12.0635" width="15.3555" height="13.8516" filterUnits="userSpaceOnUse" color-interpolation-filters="sRGB"><feFlood flood-opacity="0" result="BackgroundImageFix"/><feBlend mode="normal" in="SourceGraphic" in2="BackgroundImageFix" result="shape"/><feColorMatrix in="SourceAlpha" type="matrix" values="0 0 0 0 0 0 0 0 0 0 0 0 0 0 0 0 0 0 127 0" result="hardAlpha"/><feOffset dx="0.46875" dy="0.46875"/><feGaussianBlur stdDeviation="0.703125"/><feComposite in2="hardAlpha" operator="arithmetic" k2="-1" k3="1"/><feColorMatrix type="matrix" values="0 0 0 0 0.121569 0 0 0 0 0.121569 0 0 0 0 0.117647 0 0 0 0.05 0"/><feBlend mode="normal" in2="shape" result="effect1_innerShadow_2483_15959"/><feColorMatrix in="SourceAlpha" type="matrix" values="0 0 0 0 0 0 0 0 0 0 0 0 0 0 0 0 0 0 127 0" result="hardAlpha"/><feOffset dx="-0.46875" dy="-0.46875"/><feGaussianBlur stdDeviation="0.703125"/><feComposite in2="hardAlpha" operator="arithmetic" k2="-1" k3="1"/><feColorMatrix type="matrix" values="0 0 0 0 0.121569 0 0 0 0 0.121569 0 0 0 0 0.117647 0 0 0 0.05 0"/><feBlend mode="normal" in2="effect1_innerShadow_2483_15959" result="effect2_innerShadow_2483_15959"/><feColorMatrix in="SourceAlpha" type="matrix" values="0 0 0 0 0 0 0 0 0 0 0 0 0 0 0 0 0 0 127 0" result="hardAlpha"/><feOffset dx="0.46875" dy="0.46875"/><feGaussianBlur stdDeviation="0.9375"/><feComposite in2="hardAlpha" operator="arithmetic" k2="-1" k3="1"/><feColorMatrix type="matrix" values="0 0 0 0 0.121569 0 0 0 0 0.121569 0 0 0 0 0.117647 0 0 0 0.05 0"/><feBlend mode="normal" in2="effect2_innerShadow_2483_15959" result="effect3_innerShadow_2483_15959"/></filter><filter id="filter1_dii_2483_15959" x="11.7305" y="12.7314" width="26.4062" height="26.875" filterUnits="userSpaceOnUse" color-interpolation-filters="sRGB"><feFlood flood-opacity="0" result="BackgroundImageFix"/><feColorMatrix in="SourceAlpha" type="matrix" values="0 0 0 0 0 0 0 0 0 0 0 0 0 0 0 0 0 0 127 0" result="hardAlpha"/><feOffset dx="0.9375" dy="1.40625"/><feGaussianBlur stdDeviation="0.5"/><feComposite in2="hardAlpha" operator="out"/><feColorMatrix type="matrix" values="0 0 0 0 0.394602 0 0 0 0 0.394602 0 0 0 0 0.394602 0 0 0 0.08 0"/><feBlend mode="normal" in2="BackgroundImageFix" result="effect1_dropShadow_2483_15959"/><feBlend mode="normal" in="SourceGraphic" in2="effect1_dropShadow_2483_15959" result="shape"/><feColorMatrix in="SourceAlpha" type="matrix" values="0 0 0 0 0 0 0 0 0 0 0 0 0 0 0 0 0 0 127 0" result="hardAlpha"/><feOffset dx="0.5" dy="0.5"/><feGaussianBlur stdDeviation="0.5"/><feComposite in2="hardAlpha" operator="arithmetic" k2="-1" k3="1"/><feColorMatrix type="matrix" values="0 0 0 0 0.109684 0 0 0 0 0.0922738 0 0 0 0 0.0922738 0 0 0 0.1 0"/><feBlend mode="normal" in2="shape" result="effect2_innerShadow_2483_15959"/><feColorMatrix in="SourceAlpha" type="matrix" values="0 0 0 0 0 0 0 0 0 0 0 0 0 0 0 0 0 0 127 0" result="hardAlpha"/><feOffset dx="-0.46875" dy="-0.46875"/><feGaussianBlur stdDeviation="0.5"/><feComposite in2="hardAlpha" operator="arithmetic" k2="-1" k3="1"/><feColorMatrix type="matrix" values="0 0 0 0 0 0 0 0 0 0 0 0 0 0 0 0 0 0 0.05 0"/><feBlend mode="normal" in2="effect2_innerShadow_2483_15959" result="effect3_innerShadow_2483_15959"/></filter></defs></svg>

<svg fill="none" viewBox="0 0 49 74"><path fill="#DADADA" d="M0 0h49v74H0z"/><path fill="white" d="M1142.2 94.2H-297.801v-109H1142.2z"/><path fill="black" d="M2.047 63.68A14.4 14.4 0 0 1 .86 65.204l-.276-.924c1.176-1.452 2.028-3.12 2.568-4.992l.804.372A16 16 0 0 1 2.9 62.264v8.16h-.852zm1.86-2.7h3.696c-.18-.48-.384-.936-.624-1.392l.828-.228c.252.528.444 1.008.588 1.452l-.456.168h3.78v.816H3.907zm1.104 1.788h5.676v.78H5.011zm0 1.692h5.676v.792H5.011zm5.892 1.776V70.4h-.84v-.648h-4.44v.648h-.84v-4.164zm-5.28 2.7h4.44V67.04h-4.44zm8.868-8.652h2.64c.168-.312.288-.624.372-.96l.9.12c-.096.3-.216.576-.36.84h3.96v5.868h-7.512zm6.672 5.124V64.4h-5.832v1.008zm-5.832-1.704h5.832v-.984h-5.832zm0-1.68h5.832v-.984h-5.832zm-1.44 4.944.816.168c-.288 1.104-.684 2.052-1.2 2.868l-.732-.468a8 8 0 0 0 1.116-2.568m5.784 3.252h-3.084c-.696 0-1.032-.348-1.032-1.02v-2.292h.876v2.112c0 .276.132.42.408.42h2.664c.276 0 .468-.072.564-.192.144-.168.252-.636.3-1.416l.828.264c-.096 1.008-.264 1.62-.504 1.848-.216.18-.564.276-1.02.276m-1.608-3.744c.648.624 1.14 1.176 1.488 1.644l-.66.456c-.36-.516-.84-1.08-1.464-1.704zm3.876.276c.768.96 1.356 1.812 1.764 2.532l-.684.48c-.432-.78-1.02-1.644-1.752-2.592zm11.688-2.616v2.352h-5.988v.828h6.54V70.4h-.852v-.504h-5.688v.492h-.864v-6.252zm-5.988 4.992h5.688v-1.116h-5.688zm0-3.336h5.148v-.96h-5.148zm7.644-3.108v2.172h-.84v-1.428h-8.496v1.428h-.84v-2.172h4.752c-.12-.288-.24-.54-.372-.78l.84-.144-.072-.048c.576-.72.984-1.5 1.248-2.364l.828.18c-.084.252-.168.492-.264.732h3.468v.756h-2.136c.252.336.456.648.6.936l-.768.288a8 8 0 0 0-.756-1.224h-.756a9.4 9.4 0 0 1-.732 1.152l-.648-.396c.132.276.264.576.384.912zm-8.736-1.668c-.288.468-.6.9-.96 1.296l-.756-.48a7.1 7.1 0 0 0 1.584-2.496l.828.18c-.096.264-.204.504-.3.744h3.216v.756h-2.016c.264.36.492.708.66 1.032l-.792.3c-.216-.456-.48-.9-.78-1.332zm14.64-1.14h5.868v5.544h-2.496v1.416h2.7v.816h-2.7v1.56h3.144v.828h-7.224v-.828H43.7v-1.56h-2.712v-.816H43.7V65.42h-2.508zm5.04 4.776v-1.62h-1.668v1.62zm-2.532 0v-1.62h-1.68v1.62zm-1.68-2.376h1.68v-1.632h-1.68zm2.544-1.632v1.632h1.668v-1.632zm-7.608 3.204h1.308v-2.844h-1.476v-.816h3.828v.816h-1.464v2.844h1.32v.828h-1.32V67.4c.456-.156.888-.324 1.32-.516v.84q-1.656.684-3.564 1.152l-.216-.828a18 18 0 0 0 1.572-.36v-3.012h-1.308z"/><rect width="48.2" height="48.2" x=".099" y=".1" fill="#F6F6F6" rx="10.1"/><rect width="48.2" height="48.2" x=".099" y=".1" stroke="#D4D4D8" stroke-width=".2" rx="10.1"/><g filter="url(#a)"><path fill="#D9D9D9" d="M33.714 12.532h-8.14a.01.01 0 0 0-.006.007.01.01 0 0 1-.007.007c-1.438.002-2.5.69-2.926 1.88a4 4 0 0 0-.201 1.254v4.887c0 .954.288 1.744.84 2.295.55.55 1.34.84 2.294.84.514 0 .94.426.94.94a.803.803 0 0 0 1.25.667l2.173-1.457c.151-.1.34-.164.527-.164h3.259c.45 0 .877-.063 1.266-.201 1.19-.427 1.868-1.492 1.868-2.933v-4.888c0-1.931-1.203-3.134-3.134-3.134zm-7.683 6.594a.94.94 0 0 1-.94-.94c0-.514.426-.94.94-.94s.94.426.94.94-.413.94-.94.94m3.532 0a.94.94 0 0 1-.94-.94c0-.514.426-.94.94-.94s.94.426.94.94-.426.94-.94.94m3.523 0a.94.94 0 0 1-.94-.94c0-.514.426-.94.94-.94s.94.426.94.94-.426.94-.94.94"/></g><g filter="url(#b)"><path fill="#919191" d="M31.543 25.533c-.349 0-.697.1-.986.298l-2.865 1.908a1.92 1.92 0 0 1-1.085.328 2 2 0 0 1-.93-.238l-.01-.003a1.92 1.92 0 0 1-1.01-1.697c0-.387-.289-.745-.706-.884a4.9 4.9 0 0 1-1.901-1.153c-.925-.924-1.443-2.256-1.443-3.736V14.2a1 1 0 0 0-1-1h-3.249a4.153 4.153 0 0 0-4.159 4.144v11.14a4.146 4.146 0 0 0 4.16 4.145H32.04a4.146 4.146 0 0 0 4.16-4.144v-1.952a1 1 0 0 0-1-1zM28.727 35.73h-2.26a1.5 1.5 0 0 1-1.502-1.49v-.368a.734.734 0 0 0-.736-.735.734.734 0 0 0-.736.735v.368A1.49 1.49 0 0 1 22 35.729h-2.259a.747.747 0 0 0-.736.736c0 .397.338.735.736.735h8.986a.74.74 0 0 0 .736-.735.74.74 0 0 0-.736-.736"/></g><defs><filter id="a" width="15.355" height="13.852" x="21.965" y="12.063" color-interpolation-filters="sRGB" filterUnits="userSpaceOnUse"><feFlood flood-opacity="0" result="BackgroundImageFix"/><feBlend in="SourceGraphic" in2="BackgroundImageFix" mode="normal" result="shape"/><feColorMatrix in="SourceAlpha" result="hardAlpha" type="matrix" values="0 0 0 0 0 0 0 0 0 0 0 0 0 0 0 0 0 0 127 0"/><feOffset dx=".469" dy=".469"/><feGaussianBlur stdDeviation=".703"/><feComposite in2="hardAlpha" k2="-1" k3="1" operator="arithmetic"/><feColorMatrix type="matrix" values="0 0 0 0 0.121569 0 0 0 0 0.121569 0 0 0 0 0.117647 0 0 0 0.05 0"/><feBlend in2="shape" mode="normal" result="effect1_innerShadow_2483_15959"/><feColorMatrix in="SourceAlpha" result="hardAlpha" type="matrix" values="0 0 0 0 0 0 0 0 0 0 0 0 0 0 0 0 0 0 127 0"/><feOffset dx="-.469" dy="-.469"/><feGaussianBlur stdDeviation=".703"/><feComposite in2="hardAlpha" k2="-1" k3="1" operator="arithmetic"/><feColorMatrix type="matrix" values="0 0 0 0 0.121569 0 0 0 0 0.121569 0 0 0 0 0.117647 0 0 0 0.05 0"/><feBlend in2="effect1_innerShadow_2483_15959" mode="normal" result="effect2_innerShadow_2483_15959"/><feColorMatrix in="SourceAlpha" result="hardAlpha" type="matrix" values="0 0 0 0 0 0 0 0 0 0 0 0 0 0 0 0 0 0 127 0"/><feOffset dx=".469" dy=".469"/><feGaussianBlur stdDeviation=".938"/><feComposite in2="hardAlpha" k2="-1" k3="1" operator="arithmetic"/><feColorMatrix type="matrix" values="0 0 0 0 0.121569 0 0 0 0 0.121569 0 0 0 0 0.117647 0 0 0 0.05 0"/><feBlend in2="effect2_innerShadow_2483_15959" mode="normal" result="effect3_innerShadow_2483_15959"/></filter><filter id="b" width="26.406" height="26.875" x="11.73" y="12.731" color-interpolation-filters="sRGB" filterUnits="userSpaceOnUse"><feFlood flood-opacity="0" result="BackgroundImageFix"/><feColorMatrix in="SourceAlpha" result="hardAlpha" type="matrix" values="0 0 0 0 0 0 0 0 0 0 0 0 0 0 0 0 0 0 127 0"/><feOffset dx=".938" dy="1.406"/><feGaussianBlur stdDeviation=".5"/><feComposite in2="hardAlpha" operator="out"/><feColorMatrix type="matrix" values="0 0 0 0 0.394602 0 0 0 0 0.394602 0 0 0 0 0.394602 0 0 0 0.08 0"/><feBlend in2="BackgroundImageFix" mode="normal" result="effect1_dropShadow_2483_15959"/><feBlend in="SourceGraphic" in2="effect1_dropShadow_2483_15959" mode="normal" result="shape"/><feColorMatrix in="SourceAlpha" result="hardAlpha" type="matrix" values="0 0 0 0 0 0 0 0 0 0 0 0 0 0 0 0 0 0 127 0"/><feOffset dx=".5" dy=".5"/><feGaussianBlur stdDeviation=".5"/><feComposite in2="hardAlpha" k2="-1" k3="1" operator="arithmetic"/><feColorMatrix type="matrix" values="0 0 0 0 0.109684 0 0 0 0 0.0922738 0 0 0 0 0.0922738 0 0 0 0.1 0"/><feBlend in2="shape" mode="normal" result="effect2_innerShadow_2483_15959"/><feColorMatrix in="SourceAlpha" result="hardAlpha" type="matrix" values="0 0 0 0 0 0 0 0 0 0 0 0 0 0 0 0 0 0 127 0"/><feOffset dx="-.469" dy="-.469"/><feGaussianBlur stdDeviation=".5"/><feComposite in2="hardAlpha" k2="-1" k3="1" operator="arithmetic"/><feColorMatrix type="matrix" values="0 0 0 0 0 0 0 0 0 0 0 0 0 0 0 0 0 0 0.05 0"/><feBlend in2="effect2_innerShadow_2483_15959" mode="normal" result="effect3_innerShadow_2483_15959"/></filter></defs></svg>
